public/assets/images/logo_light.svg

<svg width="145" height="26" viewBox="0 0 145 26" fill="none" xmlns="http://www.w3.org/2000/svg">
<path fill-rule="evenodd" clip-rule="evenodd" d="M4.02663 13L1.33333 11.416L3.31846 7.91739L6.01333 9.4987L6.01487 6.33333H9.98513L9.98667 9.4987L12.6815 7.91739L14.6667 11.416L11.9733 13L14.6667 14.584L12.6815 18.0826L9.98667 16.5013L9.98513 19.6667H6.01487L6.01333 16.5013L3.31846 18.0826L1.33333 14.584L4.02663 13Z" fill="#0A84FF"/>
<path d="M28.266 18V7.578H24.54V5.994H33.774V7.578H30.066V18H28.266ZM33.168 13.644C33.168 11.124 34.986 9.09 37.524 9.09C40.134 9.09 41.754 11.124 41.754 13.788V14.184H34.878C35.004 15.66 36.084 16.884 37.83 16.884C38.748 16.884 39.756 16.524 40.404 15.858L41.16 16.92C40.296 17.766 39.072 18.216 37.668 18.216C35.076 18.216 33.168 16.38 33.168 13.644ZM37.524 10.422C35.778 10.422 34.95 11.826 34.86 13.014H40.17C40.134 11.862 39.36 10.422 37.524 10.422ZM43.3203 13.644C43.3203 11.034 45.1203 9.09 47.7483 9.09C49.3863 9.09 50.3763 9.774 51.0063 10.62L49.9263 11.61C49.4043 10.872 48.7023 10.53 47.8203 10.53C46.1103 10.53 45.0123 11.844 45.0123 13.644C45.0123 15.444 46.1103 16.776 47.8203 16.776C48.7023 16.776 49.4043 16.416 49.9263 15.696L51.0063 16.686C50.3763 17.532 49.3863 18.216 47.7483 18.216C45.1203 18.216 43.3203 16.254 43.3203 13.644ZM58.738 18V12.402C58.738 10.962 58 10.53 56.884 10.53C55.876 10.53 54.958 11.142 54.49 11.79V18H52.87V5.994H54.49V10.53C55.066 9.828 56.236 9.09 57.568 9.09C59.422 9.09 60.358 10.026 60.358 11.862V18H58.738ZM67.7789 18V5.994H72.8369C75.3029 5.994 76.6709 7.686 76.6709 9.684C76.6709 11.682 75.2849 13.374 72.8369 13.374H69.5789V18H67.7789ZM74.8169 9.684C74.8169 8.424 73.8989 7.578 72.6029 7.578H69.5789V11.79H72.6029C73.8989 11.79 74.8169 10.944 74.8169 9.684ZM79.3551 7.848C78.7971 7.848 78.3111 7.398 78.3111 6.822C78.3111 6.246 78.7971 5.778 79.3551 5.778C79.9311 5.778 80.3991 6.246 80.3991 6.822C80.3991 7.398 79.9311 7.848 79.3551 7.848ZM78.5631 18V9.306H80.1831V18H78.5631ZM86.6963 18.216C83.9963 18.216 82.3043 16.164 82.3043 13.644C82.3043 11.142 83.9963 9.09 86.6963 9.09C89.4143 9.09 91.0883 11.142 91.0883 13.644C91.0883 16.164 89.4143 18.216 86.6963 18.216ZM86.6963 16.776C88.4423 16.776 89.3963 15.3 89.3963 13.644C89.3963 12.006 88.4423 10.53 86.6963 10.53C84.9683 10.53 83.9963 12.006 83.9963 13.644C83.9963 15.3 84.9683 16.776 86.6963 16.776ZM99.0931 18V12.438C99.0931 10.998 98.3551 10.53 97.2391 10.53C96.2311 10.53 95.3131 11.142 94.8451 11.79V18H93.2251V9.306H94.8451V10.53C95.4211 9.828 96.5731 9.09 97.9231 9.09C99.7591 9.09 100.713 10.062 100.713 11.898V18H99.0931ZM102.82 13.644C102.82 11.124 104.638 9.09 107.176 9.09C109.786 9.09 111.406 11.124 111.406 13.788V14.184H104.53C104.656 15.66 105.736 16.884 107.482 16.884C108.4 16.884 109.408 16.524 110.056 15.858L110.812 16.92C109.948 17.766 108.724 18.216 107.32 18.216C104.728 18.216 102.82 16.38 102.82 13.644ZM107.176 10.422C105.43 10.422 104.602 11.826 104.512 13.014H109.822C109.786 11.862 109.012 10.422 107.176 10.422ZM112.972 13.644C112.972 11.124 114.79 9.09 117.328 9.09C119.938 9.09 121.558 11.124 121.558 13.788V14.184H114.682C114.808 15.66 115.888 16.884 117.634 16.884C118.552 16.884 119.56 16.524 120.208 15.858L120.964 16.92C120.1 17.766 118.876 18.216 117.472 18.216C114.88 18.216 112.972 16.38 112.972 13.644ZM117.328 10.422C115.582 10.422 114.754 11.826 114.664 13.014H119.974C119.938 11.862 119.164 10.422 117.328 10.422ZM123.664 18V9.306H125.284V10.638C125.95 9.774 126.976 9.108 128.128 9.108V10.746C127.966 10.71 127.786 10.692 127.57 10.692C126.76 10.692 125.662 11.304 125.284 11.952V18H123.664ZM129.07 16.866L129.844 15.678C130.438 16.326 131.59 16.92 132.76 16.92C133.984 16.92 134.632 16.416 134.632 15.678C134.632 14.814 133.642 14.526 132.526 14.274C131.05 13.932 129.322 13.536 129.322 11.664C129.322 10.278 130.51 9.09 132.634 9.09C134.128 9.09 135.208 9.63 135.946 10.332L135.226 11.466C134.722 10.854 133.75 10.404 132.652 10.404C131.554 10.404 130.87 10.836 130.87 11.538C130.87 12.294 131.806 12.546 132.886 12.798C134.398 13.14 136.198 13.554 136.198 15.552C136.198 17.046 134.974 18.216 132.688 18.216C131.23 18.216 129.952 17.766 129.07 16.866Z" fill="#0A84FF"/>
</svg>

<svg xmlns="http://www.w3.org/2000/svg" width="145" height="26" fill="none" viewBox="0 0 145 26"><path fill="#0a84ff" fill-rule="evenodd" d="m4.027 13-2.694-1.584 1.985-3.499L6.013 9.5l.002-3.166h3.97L9.987 9.5l2.694-1.582 1.986 3.499L11.973 13l2.694 1.584-1.985 3.499L9.987 16.5l-.002 3.166h-3.97L6.013 16.5l-2.695 1.582-1.985-3.499z" clip-rule="evenodd"/><path fill="#0a84ff" d="M28.266 18V7.578H24.54V5.994h9.234v1.584h-3.708V18zm4.902-4.356c0-2.52 1.818-4.554 4.356-4.554 2.61 0 4.23 2.034 4.23 4.698v.396h-6.876c.126 1.476 1.206 2.7 2.952 2.7.918 0 1.926-.36 2.574-1.026l.756 1.062c-.864.846-2.088 1.296-3.492 1.296-2.592 0-4.5-1.836-4.5-4.572m4.356-3.222c-1.746 0-2.574 1.404-2.664 2.592h5.31c-.036-1.152-.81-2.592-2.646-2.592m5.796 3.222c0-2.61 1.8-4.554 4.428-4.554 1.638 0 2.628.684 3.258 1.53l-1.08.99c-.522-.738-1.224-1.08-2.106-1.08-1.71 0-2.808 1.314-2.808 3.114s1.098 3.132 2.808 3.132q1.323 0 2.106-1.08l1.08.99c-.63.846-1.62 1.53-3.258 1.53-2.628 0-4.428-1.962-4.428-4.572M58.738 18v-5.598c0-1.44-.738-1.872-1.854-1.872-1.008 0-1.926.612-2.394 1.26V18h-1.62V5.994h1.62v4.536c.576-.702 1.746-1.44 3.078-1.44 1.854 0 2.79.936 2.79 2.772V18zm9.04 0V5.994h5.059c2.466 0 3.834 1.692 3.834 3.69s-1.386 3.69-3.834 3.69h-3.258V18zm7.039-8.316c0-1.26-.918-2.106-2.214-2.106h-3.024v4.212h3.024c1.296 0 2.214-.846 2.214-2.106m4.538-1.836c-.558 0-1.044-.45-1.044-1.026s.486-1.044 1.044-1.044c.576 0 1.044.468 1.044 1.044a1.03 1.03 0 0 1-1.044 1.026M78.563 18V9.306h1.62V18zm8.133.216c-2.7 0-4.392-2.052-4.392-4.572 0-2.502 1.692-4.554 4.392-4.554 2.718 0 4.392 2.052 4.392 4.554 0 2.52-1.674 4.572-4.392 4.572m0-1.44c1.746 0 2.7-1.476 2.7-3.132 0-1.638-.954-3.114-2.7-3.114-1.728 0-2.7 1.476-2.7 3.114 0 1.656.972 3.132 2.7 3.132M99.093 18v-5.562c0-1.44-.738-1.908-1.854-1.908-1.008 0-1.926.612-2.394 1.26V18h-1.62V9.306h1.62v1.224c.576-.702 1.728-1.44 3.078-1.44 1.836 0 2.79.972 2.79 2.808V18zm3.727-4.356c0-2.52 1.818-4.554 4.356-4.554 2.61 0 4.23 2.034 4.23 4.698v.396h-6.876c.126 1.476 1.206 2.7 2.952 2.7.918 0 1.926-.36 2.574-1.026l.756 1.062c-.864.846-2.088 1.296-3.492 1.296-2.592 0-4.5-1.836-4.5-4.572m4.356-3.222c-1.746 0-2.574 1.404-2.664 2.592h5.31c-.036-1.152-.81-2.592-2.646-2.592m5.796 3.222c0-2.52 1.818-4.554 4.356-4.554 2.61 0 4.23 2.034 4.23 4.698v.396h-6.876c.126 1.476 1.206 2.7 2.952 2.7.918 0 1.926-.36 2.574-1.026l.756 1.062c-.864.846-2.088 1.296-3.492 1.296-2.592 0-4.5-1.836-4.5-4.572m4.356-3.222c-1.746 0-2.574 1.404-2.664 2.592h5.31c-.036-1.152-.81-2.592-2.646-2.592M123.664 18V9.306h1.62v1.332c.666-.864 1.692-1.53 2.844-1.53v1.638a2.6 2.6 0 0 0-.558-.054c-.81 0-1.908.612-2.286 1.26V18zm5.406-1.134.774-1.188c.594.648 1.746 1.242 2.916 1.242 1.224 0 1.872-.504 1.872-1.242 0-.864-.99-1.152-2.106-1.404-1.476-.342-3.204-.738-3.204-2.61 0-1.386 1.188-2.574 3.312-2.574 1.494 0 2.574.54 3.312 1.242l-.72 1.134c-.504-.612-1.476-1.062-2.574-1.062s-1.782.432-1.782 1.134c0 .756.936 1.008 2.016 1.26 1.512.342 3.312.756 3.312 2.754 0 1.494-1.224 2.664-3.51 2.664-1.458 0-2.736-.45-3.618-1.35"/></svg>
